X: 4
T: Laride
M: 4/4
L: 1/8
K: Em
"Em"E4 B4 | A2c2 B4 | "D"A3B AGF2 | "Em"G2 A2 B4 |
"Em"E4 B4 | A2c2 B4 | "D"A3B AGF2 | "Em"G2 F2 E4 :|
"Em"E4 G4 | G2E2 "D"F4 | F2AB AGF2 | "Em"G2 A2 B4 | 
"Em"E4 G4 | G2E2 "D"F4 | F2AB AGF2 | "Em"G2 F2 E4 :| 
"^Alternate chords for B part""C"E4 G4 | G2E2 F4 | "D"F2AB AGF2 | G2 A2 B4 | 
"C"E4 G4 | G2E2 F4 | "D"F2AB AGF2 | G2 F2 E4 | 
W: 1) Tune x 2, then solos alternate times through the tune.
W: 2) If time, 2 bars of call and 2 bars of response (winds vs strings)

